X: 1
T: Pennan Den    [Dm]
C: James Watt (1832-1909)
R: air
Z: 2016 John Chambers <jc:trillian.mit.edu>
S: Lance Ramshaw, Slow Scottish Jam collection
M: C
L: 1/16
K: Dm
A2 |\
(d3D) (DEFD) EA3 A,3 (3(g/f/e/ | f3d) (c3A) (GA)c(G Ac3) |\
(d3D) (DEFD) EA3 A,3 (3(g/f/e/ | f3d) (e2^c2) d6 :|
A2 |\
(d3e) (f3g) a2f2 ga3 | (fd3) (c3A) (GAc)(G Ac3) |\
(d3e) (f3g) a2f2 ga3 | (fd3) (c3A) d6 |]
A2 |\
(d3e) (f3g) (agfg a)fga | (fd3) (c3A) (GAc)(G Ac3) |\
(d3D) (DEFD) EA3 A,3 (3(g/f/e/ | f3d) e2^c2 d6 |]
